X: 1
T: John McNeil's Reel
T: Big John McNeil
C: Peter Milne
S: handwritten copy of unknown origin in Concord Slow Scottish Session collection
Z: 2015 John Chambers <jc:trillian.mit.edu> (based on RSCDS version from Anselm Lingnau)
%%staffsep 40
M: C|
L: 1/8
K: A
E !segno!||\
"A"A,2CE FECE | "A"AECE FECE |\
"A"A,2CE FECE | "D"FAGF "E7"EDCB, |
"A"A,2CE FECE | "A"AECE FE[DC][CA,] |\
"E/G#"B,D"A"CE "Bm"DF"A7/C#"E=G | "D"FA"E7"GB "A"cAA :|
|: f |\
"A"eA"D"fA "A"eAca | "A"eA"D"fA "A"e2 f/g/a |\
"A"eA"D"fA "A"eAce | "D"df"A"ca "E"B2 {de}Tf2 |
"A"eA"D"fA "A"eAca | "A"eA"D"fA "A"e2 e/f/g |\
"A"a[bg]ag fedc |1 "E7"defg "A"a3 :|2 "D"BAGF "E7"EDC!segno!B, |]
